brandFactory_export/3.Masa/Flecha abajo_3Masa.svg

<?xml version="1.0" encoding="UTF-8"?>
<svg width="24px" height="24px" viewBox="0 0 24 24" version="1.1" xmlns="http://www.w3.org/2000/svg" xmlns:xlink="http://www.w3.org/1999/xlink">
    <title>3.Masa/Flecha abajo_3Masa</title>
    <g id="Symbols" stroke="none" stroke-width="1" fill="none" fill-rule="evenodd">
        <g id="3.Masa/Flecha-abajo_3Masa" fill="#5CB615" fill-rule="nonzero">
            <path d="M0.0235294118,11.8957983 C0.0235294118,11.7142857 0.0571428571,11.5361345 0.124369748,11.3680672 C0.336134454,10.8470588 0.847058824,10.5277311 1.45210084,10.5344538 L5.83193277,10.5310924 C5.85546218,10.5176471 5.8789916,10.5042017 5.89915966,10.4840336 L5.92268908,2.22521008 C5.91260504,1.48571429 6.09747899,0.941176471 6.48403361,0.564705882 C6.87058824,0.188235294 7.41848739,0.0100840336 8.15462185,0.0336134454 L15.405042,0.0336134454 C15.9092437,0.0235294118 16.6352941,0.0705882353 17.1394958,0.557983193 C17.6436975,1.04537815 17.7176471,1.76806723 17.7243697,2.26890756 L17.7243697,2.2789916 L17.7210084,10.3327731 C17.7310924,10.4 17.7512605,10.4605042 17.7848739,10.5210084 L22.0605042,10.5142857 L22.0672269,10.5142857 C23.0957983,10.5210084 23.4453782,11.0117647 23.5630252,11.3042017 C23.7647059,11.805042 23.5798319,12.3831933 23.0588235,12.8907563 L12.605042,23.2806723 C12.5042017,23.3848739 12.2084034,23.6840336 11.7781513,23.6807004 C11.5966387,23.6807004 11.3243697,23.6201681 11.0655462,23.3512605 L0.61512605,13.1764706 C0.231932773,12.810084 0.0235294118,12.3462185 0.0235294118,11.8957983 Z" id="Path"></path>
        </g>
    </g>
</svg>

<svg width="24" height="24" viewBox="0 0 24 24" xmlns="http://www.w3.org/2000/svg"><path d="M.024 11.896c0-.182.033-.36.1-.528.212-.52.723-.84 1.328-.834l4.38-.003a.303.303 0 00.067-.047l.024-8.259c-.01-.74.174-1.284.561-1.66.387-.377.934-.555 1.67-.531h7.251c.504-.01 1.23.037 1.734.524.505.487.579 1.21.585 1.71v.011l-.003 8.054c.01.067.03.128.064.188l4.276-.007h.006c1.029.007 1.378.498 1.496.79.202.501.017 1.08-.504 1.587L12.605 23.28c-.1.104-.397.403-.827.4-.181 0-.454-.06-.712-.33L.616 13.176c-.384-.366-.592-.83-.592-1.28z" fill="#5CB615" fill-rule="nonzero"/></svg>
